websites/docs-smoke-test/src/icons/svg/card-banner-oss.svg

<?xml version="1.0" encoding="UTF-8"?>
<svg width="324px" height="80px" viewBox="0 0 324 80" version="1.1" xmlns="http://www.w3.org/2000/svg" xmlns:xlink="http://www.w3.org/1999/xlink">
    <title>Grey</title>
    <defs>
        <rect id="path-1" x="0" y="0" width="324" height="80" rx="6"></rect>
        <linearGradient x1="0%" y1="50.5425347%" x2="100%" y2="49.57606%" id="linearGradient-3">
            <stop stop-color="#808080" offset="0%"></stop>
            <stop stop-color="#B3B3B3" offset="100%"></stop>
        </linearGradient>
        <rect id="path-4" x="0" y="0" width="1920" height="200"></rect>
        <polygon id="path-6" points="0 0 192 0 192 219 0 219"></polygon>
        <polygon id="path-8" points="0 0 148 0 148 169 0 169"></polygon>
    </defs>
    <g id="Page-1" stroke="none" stroke-width="1" fill="none" fill-rule="evenodd">
        <g id="Color-Scheme----Banner-/-All" transform="translate(-952.000000, -284.000000)">
            <g id="Grey" transform="translate(952.000000, 284.000000)">
                <mask id="mask-2" fill="white">
                    <use xlink:href="#path-1"></use>
                </mask>
                <use id="Mask" fill="#078CDF" xlink:href="#path-1"></use>
                <g mask="url(#mask-2)">
                    <g transform="translate(-913.000000, -70.000000)">
                        <mask id="mask-5" fill="white">
                            <use xlink:href="#path-4"></use>
                        </mask>
                        <use id="bg-Open-Source" stroke="none" fill="url(#linearGradient-3)" fill-rule="evenodd" xlink:href="#path-4"></use>
                        <g id="bg-pattern-1" stroke="none" stroke-width="1" fill="none" fill-rule="evenodd" mask="url(#mask-5)">
                            <g transform="translate(872.000000, -153.000000)">
                                <g id="hex-3" opacity="0.0730794271" transform="translate(57.000000, 198.000000)">
                                    <mask id="mask-7" fill="white">
                                        <use xlink:href="#path-6"></use>
                                    </mask>
                                    <g id="Clip-2"></g>
                                    <path d="M192,171.626092 C192,174.26122 190.591306,176.696634 188.304607,178.013949 L99.694895,218.012014 C97.4086943,219.329329 94.591804,219.329329 92.305105,218.012014 L3.69489502,178.013949 C1.4086943,176.696634 0,174.26122 0,171.626092 L0,47.3741569 C0,44.7390289 1.4086943,42.3041129 3.69489502,40.9858019 L92.305105,0.988733274 C94.591804,-0.329577758 97.4086943,-0.329577758 99.694895,0.988733274 L188.304607,40.9858019 C190.591306,42.3041129 192,44.7390289 192,47.3741569 L192,171.626092 Z" id="Fill-1" fill="#FFFFFF" mask="url(#mask-7)"></path>
                                </g>
                                <g id="hexagons" transform="translate(128.000000, 108.000000)" opacity="0.137439546">
                                    <g id="hex-3-copy-2">
                                        <mask id="mask-9" fill="white">
                                            <use xlink:href="#path-8"></use>
                                        </mask>
                                        <g id="Clip-2"></g>
                                        <path d="M148,132.442053 C148,134.475553 146.914131,136.354937 145.151468,137.371495 L76.8481482,168.237581 C75.0858685,169.25414 72.9145156,169.25414 71.1518518,168.237581 L2.84814824,137.371495 C1.08586852,136.354937 0,134.475553 0,132.442053 L0,36.5581393 C0,34.5246388 1.08586852,32.6456397 2.84814824,31.6283129 L71.1518518,0.762995083 C72.9145156,-0.254331694 75.0858685,-0.254331694 76.8481482,0.762995083 L145.151468,31.6283129 C146.914131,32.6456397 148,34.5246388 148,36.5581393 L148,132.442053 Z" id="Fill-1" fill="#FFFFFF" mask="url(#mask-9)"></path>
                                    </g>
                                </g>
                            </g>
                        </g>
                    </g>
                </g>
            </g>
        </g>
    </g>
</svg>

<svg viewBox="0 0 324 80" width="324px" height="80px" xmlns="http://www.w3.org/2000/svg" xmlns:xlink="http://www.w3.org/1999/xlink">
  <defs>
    <path id="c" d="M0 0h1920v200H0z"/>
    <path id="f" d="M0 0h192v219H0z"/>
    <path id="h" d="M0 0h148v169H0z"/>
    <linearGradient x1="0%" y1="50.543%" x2="100%" y2="49.576%" id="d">
      <stop stop-color="gray" offset="0%"/>
      <stop stop-color="#B3B3B3" offset="100%"/>
    </linearGradient>
    <rect id="a" x="0" y="0" width="324" height="80" rx="6"/>
  </defs>
  <g fill="none" fill-rule="evenodd">
    <mask id="b" fill="#fff">
      <use xlink:href="#a"/>
    </mask>
    <use fill="#078CDF" xlink:href="#a"/>
    <g mask="url(#b)">
      <g transform="translate(-913 -70)">
        <mask id="e" fill="#fff">
          <use xlink:href="#c"/>
        </mask>
        <use fill="url(#d)" xlink:href="#c"/>
        <g mask="url(#e)">
          <g opacity=".073" transform="translate(929 45)">
            <mask id="g" fill="#fff">
              <use xlink:href="#f"/>
            </mask>
            <path d="M192 171.626a7.373 7.373 0 01-3.695 6.388l-88.61 39.998a7.403 7.403 0 01-7.39 0l-88.61-39.998A7.374 7.374 0 010 171.626V47.374a7.376 7.376 0 013.695-6.388L92.305.989a7.398 7.398 0 017.39 0l88.61 39.997A7.375 7.375 0 01192 47.374v124.252z" fill="#FFF" mask="url(#g)"/>
          </g>
          <g transform="translate(1000 -45)" opacity=".137">
            <mask id="i" fill="#fff">
              <use xlink:href="#h"/>
            </mask>
            <path d="M148 132.442a5.69 5.69 0 01-2.849 4.93l-68.303 30.866a5.701 5.701 0 01-5.696 0L2.848 137.37A5.691 5.691 0 010 132.442V36.558a5.693 5.693 0 012.848-4.93L71.152.763a5.697 5.697 0 015.696 0l68.303 30.865a5.693 5.693 0 012.849 4.93v95.884z" fill="#FFF" mask="url(#i)"/>
          </g>
        </g>
      </g>
    </g>
  </g>
</svg>
